usr/share/icons/biglinux-icons-material/scalable/mimetypes/x-kde-nsplugin-generated.svg

<svg width="24" height="24" viewBox="0 0 24 24" fill="none" xmlns="http://www.w3.org/2000/svg">
<rect x="1" y="1" width="22" height="22" rx="6.6" fill="url(#paint0_radial_21_3031)"/>
<path d="M10.2069 4C9.65815 4 9.13191 4.21798 8.74391 4.60598C8.35591 4.99398 8.13793 5.52022 8.13793 6.06893C8.13827 6.43291 8.23463 6.79036 8.41728 7.10519C8.59993 7.42002 8.8624 7.6811 9.1782 7.86207H4.55173C4.24607 7.86207 4 8.10814 4 8.4138V12.4885C4.18097 12.1727 4.44205 11.9103 4.75688 11.7276C5.07171 11.545 5.42916 11.4486 5.79313 11.4483C6.34186 11.4483 6.86811 11.6662 7.25612 12.0543C7.64412 12.4423 7.8621 12.9685 7.8621 13.5172C7.8621 14.066 7.64412 14.5922 7.25612 14.9802C6.86811 15.3682 6.34186 15.5862 5.79313 15.5862C5.42899 15.5857 5.07144 15.4891 4.75659 15.3061C4.44174 15.1232 4.18076 14.8604 4 14.5443V19.4483C4 19.7539 4.24607 20 4.55173 20H9.1782C8.8624 19.819 8.59993 19.558 8.41728 19.2431C8.23463 18.9283 8.13827 18.5708 8.13793 18.2069C8.13793 17.6581 8.35591 17.1319 8.74392 16.7439C9.13192 16.3559 9.65817 16.1379 10.2069 16.1379C10.7556 16.1379 11.2819 16.3559 11.6699 16.7439C12.0579 17.1319 12.2759 17.6581 12.2759 18.2069C12.2754 18.571 12.1787 18.9286 11.9958 19.2434C11.8128 19.5583 11.55 19.8192 11.2339 20H15.5862C15.8919 20 16.1379 19.7539 16.1379 19.4483V14.5443C16.3187 14.8604 16.5797 15.1232 16.8945 15.3061C17.2094 15.4891 17.5669 15.5857 17.9311 15.5862C18.4798 15.5862 19.006 15.3682 19.394 14.9802C19.7821 14.5922 20 14.066 20 13.5172C20 12.9685 19.7821 12.4423 19.394 12.0543C19.006 11.6662 18.4798 11.4483 17.9311 11.4483C17.5671 11.4486 17.2096 11.545 16.8948 11.7276C16.58 11.9103 16.3189 12.1727 16.1379 12.4885V8.4138C16.1379 8.10814 15.8919 7.86207 15.5862 7.86207H11.2339C11.55 7.68131 11.8128 7.42033 11.9958 7.10548C12.1787 6.79063 12.2754 6.43308 12.2759 6.06893C12.2759 5.52022 12.0579 4.99398 11.6699 4.60598C11.2819 4.21798 10.7556 4 10.2069 4Z" fill="#786136"/>
<defs>
<radialGradient id="paint0_radial_21_3031" cx="0" cy="0" r="1" gradientUnits="userSpaceOnUse" gradientTransform="translate(17.5 1) rotate(116.565) scale(24.5967)">
<stop stop-color="#F1C36C"/>
<stop offset="1" stop-color="#D9B061"/>
</radialGradient>
</defs>
</svg>

<svg xmlns="http://www.w3.org/2000/svg" width="24" height="24" fill="none"><rect width="22" height="22" x="1" y="1" fill="url(#a)" rx="6.6"/><path fill="#786136" d="M10.207 4a2.069 2.069 0 0 0-1.029 3.862H4.552A.55.55 0 0 0 4 8.414v4.075a2.07 2.07 0 0 1 3.256-.435A2.069 2.069 0 1 1 4 14.544v4.904a.55.55 0 0 0 .552.552h4.626a2.069 2.069 0 1 1 2.056 0h4.352a.55.55 0 0 0 .552-.552v-4.904a2.07 2.07 0 0 0 3.256.436 2.068 2.068 0 1 0-3.256-2.492V8.415a.55.55 0 0 0-.552-.552h-4.352a2.07 2.07 0 0 0 1.042-1.793A2.069 2.069 0 0 0 10.206 4Z"/><defs><radialGradient id="a" cx="0" cy="0" r="1" gradientTransform="rotate(116.565 8.441 5.908) scale(24.5967)" gradientUnits="userSpaceOnUse"><stop stop-color="#F1C36C"/><stop offset="1" stop-color="#D9B061"/></radialGradient></defs></svg>
